Arcticons/scalable/apps/packagemanager.svg

<svg viewBox="0 0 48 48" xmlns="http://www.w3.org/2000/svg">
 <defs>
  <style>.a{fill:none;stroke:#fff;stroke-linecap:round;stroke-linejoin:round;}</style>
 </defs>
 <path class="a" d="m18.2358 18.8332a1.9846 1.9846 0 1 1 1.9847-1.9846 1.9845 1.9845 0 0 1-1.9847 1.9846z"/>
 <path class="a" d="m29.7865 18.8332a1.9846 1.9846 0 1 1 1.9845-1.9846 1.9847 1.9847 0 0 1-1.9845 1.9846z"/>
 <path class="a" d="m24 6.6148a14.147 14.147 0 0 1 14.147 14.147v2.0194h-28.294v-2.0193a14.147 14.147 0 0 1 14.147-14.1471z"/>
 <line class="a" x1="11.7836" x2="15.8028" y1="4.5" y2="9.2309"/>
 <line class="a" x1="36.2164" x2="32.1972" y1="4.5" y2="9.2309"/>
 <path class="a" d="m9.853 22.7813h28.294v18.2812a2.4375 2.4375 0 0 1-2.437 2.4375h-23.42a2.4375 2.4375 0 0 1-2.437-2.4375v-18.2812z"/>
 <path class="a" d="M29.0575,33.7959a4.447,4.447,0,0,0,0-1.33l1.44-1.1a.33.33,0,0,0,.08-.43l-1.36-2.36a.33.33,0,0,0-.41-.15l-1.7.68a5.68,5.68,0,0,0-1.15-.67l-.26-1.8a.35.35,0,0,0-.34-.29h-2.7a.35.35,0,0,0-.36.27l-.25,1.8a5.4831,5.4831,0,0,0-1.15.67l-1.7-.68a.33.33,0,0,0-.41.15l-1.37,2.36a.34.34,0,0,0,.09.43l1.43,1.11a4.8442,4.8442,0,0,0,0,.66v.67l-1.43,1.12a.35.35,0,0,0-.09.44l1.39,2.37a.32.32,0,0,0,.41.14l1.7-.68a4.8806,4.8806,0,0,0,1.15.67l.25,1.81a.34.34,0,0,0,.34.28h2.66a.34.34,0,0,0,.34-.28l.3-1.81a5.0939,5.0939,0,0,0,1.15-.67l1.69.68a.35.35,0,0,0,.42-.14l1.36-2.36a.35.35,0,0,0-.08-.44Zm-5.06.84a1.5,1.5,0,1,1,0-3h.01a1.49,1.49,0,0,1,1.49,1.49l0,.01A1.5,1.5,0,0,1,23.9976,34.6359Z"/>
</svg>

<svg xmlns="http://www.w3.org/2000/svg" viewBox="0 0 48 48"><defs><style>.a{fill:none;stroke:#fff;stroke-linecap:round;stroke-linejoin:round;}</style></defs><path class="a" d="M18.2358,18.8332a1.9846,1.9846,0,1,1,1.9847-1.9846A1.9845,1.9845,0,0,1,18.2358,18.8332Z"/><path class="a" d="M29.7865,18.8332a1.9846,1.9846,0,1,1,1.9845-1.9846A1.9847,1.9847,0,0,1,29.7865,18.8332Z"/><path class="a" d="M24,6.6148h0a14.147,14.147,0,0,1,14.147,14.147v2.0194a0,0,0,0,1,0,0H9.853a0,0,0,0,1,0,0V20.7619A14.147,14.147,0,0,1,24,6.6148Z"/><line class="a" x1="11.7836" y1="4.5" x2="15.8028" y2="9.2309"/><line class="a" x1="36.2164" y1="4.5" x2="32.1972" y2="9.2309"/><path class="a" d="M9.853,22.7813H38.147a0,0,0,0,1,0,0V41.0625A2.4375,2.4375,0,0,1,35.71,43.5H12.29A2.4375,2.4375,0,0,1,9.853,41.0625V22.7813A0,0,0,0,1,9.853,22.7813Z"/><path class="a" d="M29.0575,33.7959a4.447,4.447,0,0,0,0-1.33l1.44-1.1a.33.33,0,0,0,.08-.43l-1.36-2.36a.33.33,0,0,0-.41-.15l-1.7.68a5.68,5.68,0,0,0-1.15-.67l-.26-1.8a.35.35,0,0,0-.34-.29h-2.7a.35.35,0,0,0-.36.27l-.25,1.8a5.4831,5.4831,0,0,0-1.15.67l-1.7-.68a.33.33,0,0,0-.41.15l-1.37,2.36a.34.34,0,0,0,.09.43l1.43,1.11a4.8442,4.8442,0,0,0,0,.66v.67l-1.43,1.12a.35.35,0,0,0-.09.44l1.39,2.37a.32.32,0,0,0,.41.14l1.7-.68a4.8806,4.8806,0,0,0,1.15.67l.25,1.81a.34.34,0,0,0,.34.28h2.66a.34.34,0,0,0,.34-.28l.3-1.81a5.0939,5.0939,0,0,0,1.15-.67l1.69.68a.35.35,0,0,0,.42-.14l1.36-2.36a.35.35,0,0,0-.08-.44Zm-5.06.84a1.5,1.5,0,1,1,0-3h.01a1.49,1.49,0,0,1,1.49,1.49l0,.01A1.5,1.5,0,0,1,23.9976,34.6359Z"/></svg>
